Newaita-dark/apps/32/freetube-bin.svg

<svg height="32" viewBox="0 0 32 32" width="32" xmlns="http://www.w3.org/2000/svg" xmlns:xlink="http://www.w3.org/1999/xlink"><linearGradient id="a"><stop offset="0" stop-opacity=".313726"/><stop offset=".222222" stop-opacity=".27451"/><stop offset="1" stop-opacity="0"/></linearGradient><radialGradient id="b" cx="450.908936" cy="189.579361" gradientTransform="matrix(.00000017 -.0781325 -.140638 -.0000001 35.923373 63.595329)" gradientUnits="userSpaceOnUse" r="21.166656" xlink:href="#a"/><radialGradient id="c" cx="450.908936" cy="189.579361" gradientTransform="matrix(-.00000017 .0781325 .140638 .0000001 -21.369898 -7.527482)" gradientUnits="userSpaceOnUse" r="21.166656" xlink:href="#a"/><radialGradient id="d" cx="450.908936" cy="189.579361" gradientTransform="matrix(-.00000017 -.0781325 .140638 -.0000001 -21.369898 63.595329)" gradientUnits="userSpaceOnUse" r="21.166656" xlink:href="#a"/><radialGradient id="e" cx="450.908936" cy="189.579361" gradientTransform="matrix(.00000017 .0781325 -.140638 .0000001 35.923371 -7.527483)" gradientUnits="userSpaceOnUse" r="21.166656" xlink:href="#a"/><linearGradient id="f" gradientTransform="matrix(.0133601 0 0 .062506 3.865607 13.438784)" gradientUnits="userSpaceOnUse" x1="255.323059" x2="255.323044" y1="233.5" y2="254.666656"><stop offset="0" stop-opacity=".27451"/><stop offset="1" stop-opacity="0"/></linearGradient><linearGradient id="g" gradientUnits="userSpaceOnUse" x1="15.87648" x2="15.87648" y1="32.66450419623" y2=".25002331972"><stop offset="0" stop-color="#f44336"/><stop offset="1" stop-color="#ef5350"/></linearGradient><linearGradient id="h" gradientUnits="userSpaceOnUse" x1="18.51637256238" x2="18.51637450006" y1="32.003065" y2=".250017"><stop offset="0" stop-color="#42a5f5"/><stop offset="1" stop-color="#64b5f6"/></linearGradient><path d="m9.59375 28.035156h2.644531v-1.324218h-2.644531zm0 0" fill="url(#b)"/><path d="m4.960938 28.035156h-2.644532v1.320313h2.644532zm0 0" fill="url(#c)"/><path d="m4.960938 28.035156h-2.644532v-1.324218h2.644532zm0 0" fill="url(#d)"/><path d="m9.59375 28.035156h2.644531v1.320313h-2.644531zm0 0" fill="url(#e)"/><path d="m4.960938 27.703125h4.632812v1.652344h-4.632812zm0 0" fill="url(#f)"/><path d="m5.292969 2.894531c-.734375 0-1.324219.589844-1.324219 1.324219v22.492188c0 .734374.589844 1.324218 1.324219 1.324218h3.96875c.734375 0 1.324219-.589844 1.324219-1.324218v-22.492188c0-.734375-.589844-1.324219-1.324219-1.324219zm7.9375 0c-.734375 0-1.324219.589844-1.324219 1.324219v2.644531c0 .734375.589844 1.324219 1.324219 1.324219h13.230469c.734374 0 1.324218-.589844 1.324218-1.324219v-2.644531c0-.734375-.589844-1.324219-1.324218-1.324219zm0 0" fill="url(#g)"/><path d="m13.261719 10.839844c-.742188-.019532-1.355469.574218-1.355469 1.316406v9.261719c0 1.015625 1.105469 1.648437 1.980469 1.136719l7.9375-4.628907c.871093-.507812.871093-1.765625 0-2.273437l-7.9375-4.632813c-.191407-.109375-.40625-.171875-.625-.179687zm0 0" fill="url(#h)"/><path d="m5.292969 2.894531c-.734375 0-1.324219.589844-1.324219 1.324219v.332031c0-.734375.589844-1.324219 1.324219-1.324219h3.96875c.734375 0 1.324219.589844 1.324219 1.324219v-.332031c0-.734375-.589844-1.324219-1.324219-1.324219zm7.9375 0c-.734375 0-1.324219.589844-1.324219 1.324219v.332031c0-.734375.589844-1.324219 1.324219-1.324219h13.230469c.734374 0 1.324218.589844 1.324218 1.324219v-.332031c0-.734375-.589844-1.324219-1.324218-1.324219zm0 0" fill="#fff" fill-opacity=".392157"/><path d="m13.226562 10.839844c-.726562 0-1.320312.585937-1.320312 1.316406v.332031c0-.742187.613281-1.335937 1.355469-1.316406.21875.007813.433593.066406.625.179687l7.9375 4.628907c.382812.222656.597656.589843.644531.972656.0625-.492187-.152344-1.015625-.644531-1.300781l-7.9375-4.632813c-.191407-.109375-.40625-.171875-.625-.179687-.011719 0-.023438 0-.035157 0zm0 0" fill="#fff" fill-opacity=".392157"/><path d="m11.90625 6.402344v.460937c0 .734375.589844 1.324219 1.324219 1.324219h13.230469c.734374 0 1.324218-.589844 1.324218-1.324219v-.460937c0 .730468-.589844 1.320312-1.324218 1.320312h-13.230469c-.734375 0-1.324219-.589844-1.324219-1.320312zm-7.9375 19.84375v.464844c0 .734374.589844 1.324218 1.324219 1.324218h3.96875c.734375 0 1.324219-.589844 1.324219-1.324218v-.464844c0 .734375-.589844 1.324218-1.324219 1.324218h-3.96875c-.734375 0-1.324219-.589843-1.324219-1.324218zm0 0" fill-opacity=".235294"/><path d="m22.457031 16.554688c-.0625.359374-.273437.695312-.632812.90625l-7.9375 4.632812c-.875.511719-1.980469-.121094-1.980469-1.140625v.464844c0 1.015625 1.105469 1.648437 1.980469 1.136719l7.9375-4.628907c.515625-.300781.722656-.855469.632812-1.371093zm0 0" fill-opacity=".235294"/><g fill="none" stroke="#212121" stroke-linecap="round" stroke-linejoin="round"><path d="m320.048194 175.022665c-44.405211 0-80.071098 35.665888-80.071098 80.071098v1360.027676c0 44.405211 35.665887 80.071098 80.071098 80.071098h239.977096c44.405211 0 80.071098-35.665887 80.071098-80.071098v-1360.027676c0-44.40521-35.665887-80.071098-80.071098-80.071098zm484.914348 0c-44.40521 0-80.071098 35.665888-80.071098 80.071098v159.905998c0 44.405211 35.665888 80.071098 80.071098 80.071098h795.04223c44.40521 0 80.071098-35.665887 80.071098-80.071098v-159.905998c0-44.40521-35.665888-80.071098-80.071098-80.071098zm0 0" stroke-width="11.338583" transform="scale(.016538)"/><path d="m212.167239-41.579061c-11.873866-.31247-21.685429 9.186623-21.685429 21.060489v148.17335c0 16.248448 17.685811 26.372482 31.684474 18.185763l126.987873-74.055428c13.93617-8.124224 13.93617-28.247302 0-36.371526l-126.987873-74.117922c-3.062207-1.749833-6.499379-2.749738-9.999045-2.874726zm0 0" stroke-width="3" transform="matrix(.062506 0 0 .062506 0 13.438783)"/></g></svg>

<?xml version="1.0" encoding="UTF-8"?>
<svg xmlns="http://www.w3.org/2000/svg" xmlns:xlink="http://www.w3.org/1999/xlink" width="32px" height="32px" viewBox="0 0 32 32" version="1.1">
<defs>
<radialGradient id="radial0" gradientUnits="userSpaceOnUse" cx="450.908936" cy="189.579361" fx="450.908936" fy="189.579361" r="21.166656" gradientTransform="matrix(0.00000017417,-0.0781325,-0.140638,-0.000000101539,35.923373,63.595329)">
<stop offset="0" style="stop-color:rgb(0%,0%,0%);stop-opacity:0.313726;"/>
<stop offset="0.222222" style="stop-color:rgb(0%,0%,0%);stop-opacity:0.27451;"/>
<stop offset="1" style="stop-color:rgb(0%,0%,0%);stop-opacity:0;"/>
</radialGradient>
<radialGradient id="radial1" gradientUnits="userSpaceOnUse" cx="450.908936" cy="189.579361" fx="450.908936" fy="189.579361" r="21.166656" gradientTransform="matrix(-0.00000017417,0.0781325,0.140638,0.000000101539,-21.369898,-7.527482)">
<stop offset="0" style="stop-color:rgb(0%,0%,0%);stop-opacity:0.313726;"/>
<stop offset="0.222222" style="stop-color:rgb(0%,0%,0%);stop-opacity:0.27451;"/>
<stop offset="1" style="stop-color:rgb(0%,0%,0%);stop-opacity:0;"/>
</radialGradient>
<radialGradient id="radial2" gradientUnits="userSpaceOnUse" cx="450.908936" cy="189.579361" fx="450.908936" fy="189.579361" r="21.166656" gradientTransform="matrix(-0.00000017417,-0.0781325,0.140638,-0.000000101539,-21.369898,63.595329)">
<stop offset="0" style="stop-color:rgb(0%,0%,0%);stop-opacity:0.313726;"/>
<stop offset="0.222222" style="stop-color:rgb(0%,0%,0%);stop-opacity:0.27451;"/>
<stop offset="1" style="stop-color:rgb(0%,0%,0%);stop-opacity:0;"/>
</radialGradient>
<radialGradient id="radial3" gradientUnits="userSpaceOnUse" cx="450.908936" cy="189.579361" fx="450.908936" fy="189.579361" r="21.166656" gradientTransform="matrix(0.00000017417,0.0781325,-0.140638,0.000000101539,35.923371,-7.527483)">
<stop offset="0" style="stop-color:rgb(0%,0%,0%);stop-opacity:0.313726;"/>
<stop offset="0.222222" style="stop-color:rgb(0%,0%,0%);stop-opacity:0.27451;"/>
<stop offset="1" style="stop-color:rgb(0%,0%,0%);stop-opacity:0;"/>
</radialGradient>
<linearGradient id="linear0" gradientUnits="userSpaceOnUse" x1="255.323059" y1="233.5" x2="255.323044" y2="254.666656" gradientTransform="matrix(0.0133601,0,0,0.062506,3.865607,13.438784)">
<stop offset="0" style="stop-color:rgb(0%,0%,0%);stop-opacity:0.27451;"/>
<stop offset="1" style="stop-color:rgb(0%,0%,0%);stop-opacity:0;"/>
</linearGradient>
<linearGradient id="linear1" gradientUnits="userSpaceOnUse" x1="960" y1="1975.118164" x2="960" y2="15.118111" gradientTransform="matrix(0.016538,0,0,0.016538,0,0)">
<stop offset="0" style="stop-color:rgb(95.686275%,26.274511%,21.176471%);stop-opacity:1;"/>
<stop offset="1" style="stop-color:rgb(93.725491%,32.549021%,31.37255%);stop-opacity:1;"/>
</linearGradient>
<linearGradient id="linear2" gradientUnits="userSpaceOnUse" x1="328.083313" y1="297" x2="328.083344" y2="-211" gradientTransform="matrix(0.062506,0,0,0.062506,-1.990803,13.438783)">
<stop offset="0" style="stop-color:rgb(25.882354%,64.705884%,96.078432%);stop-opacity:1;"/>
<stop offset="1" style="stop-color:rgb(39.215687%,70.980394%,96.470588%);stop-opacity:1;"/>
</linearGradient>
</defs>
<g id="surface1">
<path style=" stroke:none;fill-rule:nonzero;fill:url(#radial0);" d="M 9.59375 28.035156 L 12.238281 28.035156 L 12.238281 26.710938 L 9.59375 26.710938 Z M 9.59375 28.035156 "/>
<path style=" stroke:none;fill-rule:nonzero;fill:url(#radial1);" d="M 4.960938 28.035156 L 2.316406 28.035156 L 2.316406 29.355469 L 4.960938 29.355469 Z M 4.960938 28.035156 "/>
<path style=" stroke:none;fill-rule:nonzero;fill:url(#radial2);" d="M 4.960938 28.035156 L 2.316406 28.035156 L 2.316406 26.710938 L 4.960938 26.710938 Z M 4.960938 28.035156 "/>
<path style=" stroke:none;fill-rule:nonzero;fill:url(#radial3);" d="M 9.59375 28.035156 L 12.238281 28.035156 L 12.238281 29.355469 L 9.59375 29.355469 Z M 9.59375 28.035156 "/>
<path style=" stroke:none;fill-rule:nonzero;fill:url(#linear0);" d="M 4.960938 27.703125 L 9.59375 27.703125 L 9.59375 29.355469 L 4.960938 29.355469 Z M 4.960938 27.703125 "/>
<path style=" stroke:none;fill-rule:nonzero;fill:url(#linear1);" d="M 5.292969 2.894531 C 4.558594 2.894531 3.96875 3.484375 3.96875 4.21875 L 3.96875 26.710938 C 3.96875 27.445312 4.558594 28.035156 5.292969 28.035156 L 9.261719 28.035156 C 9.996094 28.035156 10.585938 27.445312 10.585938 26.710938 L 10.585938 4.21875 C 10.585938 3.484375 9.996094 2.894531 9.261719 2.894531 Z M 13.230469 2.894531 C 12.496094 2.894531 11.90625 3.484375 11.90625 4.21875 L 11.90625 6.863281 C 11.90625 7.597656 12.496094 8.1875 13.230469 8.1875 L 26.460938 8.1875 C 27.195312 8.1875 27.785156 7.597656 27.785156 6.863281 L 27.785156 4.21875 C 27.785156 3.484375 27.195312 2.894531 26.460938 2.894531 Z M 13.230469 2.894531 "/>
<path style=" stroke:none;fill-rule:nonzero;fill:url(#linear2);" d="M 13.261719 10.839844 C 12.519531 10.820312 11.90625 11.414062 11.90625 12.15625 L 11.90625 21.417969 C 11.90625 22.433594 13.011719 23.066406 13.886719 22.554688 L 21.824219 17.925781 C 22.695312 17.417969 22.695312 16.160156 21.824219 15.652344 L 13.886719 11.019531 C 13.695312 10.910156 13.480469 10.847656 13.261719 10.839844 Z M 13.261719 10.839844 "/>
<path style=" stroke:none;fill-rule:nonzero;fill:rgb(100%,100%,100%);fill-opacity:0.392157;" d="M 5.292969 2.894531 C 4.558594 2.894531 3.96875 3.484375 3.96875 4.21875 L 3.96875 4.550781 C 3.96875 3.816406 4.558594 3.226562 5.292969 3.226562 L 9.261719 3.226562 C 9.996094 3.226562 10.585938 3.816406 10.585938 4.550781 L 10.585938 4.21875 C 10.585938 3.484375 9.996094 2.894531 9.261719 2.894531 Z M 13.230469 2.894531 C 12.496094 2.894531 11.90625 3.484375 11.90625 4.21875 L 11.90625 4.550781 C 11.90625 3.816406 12.496094 3.226562 13.230469 3.226562 L 26.460938 3.226562 C 27.195312 3.226562 27.785156 3.816406 27.785156 4.550781 L 27.785156 4.21875 C 27.785156 3.484375 27.195312 2.894531 26.460938 2.894531 Z M 13.230469 2.894531 "/>
<path style=" stroke:none;fill-rule:nonzero;fill:rgb(100%,100%,100%);fill-opacity:0.392157;" d="M 13.226562 10.839844 C 12.5 10.839844 11.90625 11.425781 11.90625 12.15625 L 11.90625 12.488281 C 11.90625 11.746094 12.519531 11.152344 13.261719 11.171875 C 13.480469 11.179688 13.695312 11.238281 13.886719 11.351562 L 21.824219 15.980469 C 22.207031 16.203125 22.421875 16.570312 22.46875 16.953125 C 22.53125 16.460938 22.316406 15.9375 21.824219 15.652344 L 13.886719 11.019531 C 13.695312 10.910156 13.480469 10.847656 13.261719 10.839844 C 13.25 10.839844 13.238281 10.839844 13.226562 10.839844 Z M 13.226562 10.839844 "/>
<path style=" stroke:none;fill-rule:nonzero;fill:rgb(0%,0%,0%);fill-opacity:0.235294;" d="M 11.90625 6.402344 L 11.90625 6.863281 C 11.90625 7.597656 12.496094 8.1875 13.230469 8.1875 L 26.460938 8.1875 C 27.195312 8.1875 27.785156 7.597656 27.785156 6.863281 L 27.785156 6.402344 C 27.785156 7.132812 27.195312 7.722656 26.460938 7.722656 L 13.230469 7.722656 C 12.496094 7.722656 11.90625 7.132812 11.90625 6.402344 Z M 3.96875 26.246094 L 3.96875 26.710938 C 3.96875 27.445312 4.558594 28.035156 5.292969 28.035156 L 9.261719 28.035156 C 9.996094 28.035156 10.585938 27.445312 10.585938 26.710938 L 10.585938 26.246094 C 10.585938 26.980469 9.996094 27.570312 9.261719 27.570312 L 5.292969 27.570312 C 4.558594 27.570312 3.96875 26.980469 3.96875 26.246094 Z M 3.96875 26.246094 "/>
<path style=" stroke:none;fill-rule:nonzero;fill:rgb(0%,0%,0%);fill-opacity:0.235294;" d="M 22.457031 16.554688 C 22.394531 16.914062 22.183594 17.25 21.824219 17.460938 L 13.886719 22.09375 C 13.011719 22.605469 11.90625 21.972656 11.90625 20.953125 L 11.90625 21.417969 C 11.90625 22.433594 13.011719 23.066406 13.886719 22.554688 L 21.824219 17.925781 C 22.339844 17.625 22.546875 17.070312 22.457031 16.554688 Z M 22.457031 16.554688 "/>
<path style="fill:none;stroke-width:11.338583;stroke-linecap:round;stroke-linejoin:round;stroke:rgb(12.941177%,12.941177%,12.941177%);stroke-opacity:1;stroke-miterlimit:4;" d="M 320.048194 175.022665 C 275.642983 175.022665 239.977096 210.688553 239.977096 255.093763 L 239.977096 1615.121439 C 239.977096 1659.52665 275.642983 1695.192537 320.048194 1695.192537 L 560.02529 1695.192537 C 604.430501 1695.192537 640.096388 1659.52665 640.096388 1615.121439 L 640.096388 255.093763 C 640.096388 210.688553 604.430501 175.022665 560.02529 175.022665 Z M 804.962542 175.022665 C 760.557332 175.022665 724.891444 210.688553 724.891444 255.093763 L 724.891444 414.999761 C 724.891444 459.404972 760.557332 495.070859 804.962542 495.070859 L 1600.004772 495.070859 C 1644.409982 495.070859 1680.07587 459.404972 1680.07587 414.999761 L 1680.07587 255.093763 C 1680.07587 210.688553 1644.409982 175.022665 1600.004772 175.022665 Z M 804.962542 175.022665 " transform="matrix(0.016538,0,0,0.016538,0,0)"/>
<path style="fill:none;stroke-width:3;stroke-linecap:round;stroke-linejoin:round;stroke:rgb(12.941177%,12.941177%,12.941177%);stroke-opacity:1;stroke-miterlimit:4;" d="M 212.167239 -41.579061 C 200.293373 -41.891531 190.48181 -32.392438 190.48181 -20.518572 L 190.48181 127.654778 C 190.48181 143.903226 208.167621 154.02726 222.166284 145.840541 L 349.154157 71.785113 C 363.090327 63.660889 363.090327 43.537811 349.154157 35.413587 L 222.166284 -38.704335 C 219.104077 -40.454168 215.666905 -41.454073 212.167239 -41.579061 Z M 212.167239 -41.579061 " transform="matrix(0.062506,0,0,0.062506,0,13.438783)"/>
</g>
</svg>
